X:1
T:Coming, Coming, Yes They Are
T:Coming, Coming, Yes They Are
T:Edward Husband
T:J. Wakefield MacGill (1829-1902), alt.
T:Public Domain Courtesy of the Cyber Hymnal™
C:Edward Husband
Z:Public Domain
Z:Courtesy of the Cyber Hymnal™
%%score ( 1 2 ) ( 3 4 )
L:1/8
Q:1/4=110
M:4/4
K:G
V:1 treble 
V:2 treble 
V:3 bass 
V:4 bass 
V:1
 DD z2 [DE][DE] z2 | [DG]2 [DF]2 [Fd]4 | e3 (z d) [DB]2 [DG]2 |!f! [DF]2 [^CE]2 A4 | %4
w: 1.~Com- ing, com- ing,|yes they are,|Com- * ing, com-|* ing from|
w: 2.~Com- ing, com- ing,|yes they are,|Com- * ing, com-|* ing from|
w: 3.~Com- ing, com- ing,|yes they are,|Com- * ing, com-|* ing from|
w: 4.~Com- ing, com- ing,|yes they are,|Com- * ing, com-|* ing from|
w: 5.~Com- ing, com- ing,|yes they are,|Com- * ing, com-|* ing from|
w: 6.~Com- ing, com- ing,|yes they are,|Com- * ing, com-|* ing from|
 [B,D]3 [DE] [DE]2 [DG]2 | [DG]2 [DF]2 [CF]2 [CE]2 | [B,D]3 [DE] [DE]2 [DG]2 | [DG]2 [DF]2 [Fd]4 | %8
w: a- far, From the|wild and scorch- ing|des- ert, Af- ric’s|sons a- waked|
w: a- far, From the|fields and crowd- ed|ci- ties, Ch- ina|ga- thers to|
w: a- far, From the|In- dus, and the|Gan- ges, Stea- dy|flows the liv-|
w: a- far, From the|steppes of Rus- sia|drear- y, From Sla-|von- ia’s scat-|
w: a- far, From the|fro- zen realms of|mid- night, O- ver|many a wear-|
w: a- far, All to|meet in plains of|glo- ry, All to|sing His prais-|
!f! [=Fe]3 [Fd] [FB]2 [FG]2 | [EA]2 [EG]2 [EG]2 [^A,E]2 | [B,D]2 [DG]2 [Gc]2 [GB]2 | %11
w: from sleep; Je- sus’|love has drawn and|won them, At His|
w: His feet; In His|love Shem’s gen- tle|child- ren, Now have|
w: ing stream, To love’s|o- cean, to His|bo- som, Cal- va-|
w: tered lands, They are|yield- ing soul and|spir- it In- to|
w: y mile, To ex-|change their soul’s long|win- ter For the|
w: es sweet; What a|chor- us, what a|meet- ing, With the|
 B3 (z A) [DG]4 |] %12
w: cross * they|
w: found * a|
w: ry * their|
w: Je- * sus’|
w: sum- * mer|
w: fam- * i-|
V:2
 DD x6 | x8 | G2 G2 x5 | x4 (D2 =C2) | x8 | x8 | x8 | x8 | x8 | x8 | x8 | E2 F2 x5 |] %12
V:3
 [G,B,][G,B,] z2 [G,B,][G,B,] z2 | [A,C]2 [A,C]2 [D,C]4 | [G,C]2 [G,B,]2 [G,B,]2 [E,_B,]2 x | %3
 A,2 [A,,G,]2 [D,F,]4 | G,3 [G,B,] [G,B,]2 [G,B,]2 | [A,C]2 [A,C]2 [D,A,]2 [F,A,]2 | %6
 [G,B,]3 [G,B,] [G,B,]2 [G,B,]2 | [A,C]2 [A,C]2 [D,C]4 | [G,B,]3 [G,B,] [G,D]2 [G,B,]2 | %9
 [C,C]2 [C,C]2 [^C,_B,]2 [C,G,]2 | [D,G,]2 [D,B,]2 [D,E]2 [D,D]2 | [D,C]2 (DC) [G,B,]4 x |] %12
V:4
 x8 | x8 | x9 | A,2 x6 | G,3 x5 | x8 | x8 | x8 | x8 | x8 | x8 | x2 D,2 x5 |] %12

